assets/svgs/misc-grey/MiscGrey94.svg

<svg width="45" height="43" viewBox="0 0 45 43" fill="none" xmlns="http://www.w3.org/2000/svg">
<path fill-rule="evenodd" clip-rule="evenodd" d="M5.47403 17.78L13.442 25.55C13.795 25.89 13.957 26.39 13.874 26.87L11.992 37.84L21.842 32.66C22.279 32.43 22.801 32.43 23.238 32.66L33.087 37.84L31.207 26.87C31.123 26.39 31.285 25.89 31.638 25.55L39.606 17.78L28.594 16.18C28.105 16.11 27.683 15.8 27.464 15.36L22.54 5.37999L17.615 15.36C17.396 15.8 16.974 16.11 16.486 16.18L5.47403 17.78ZM10 42.08C9.68903 42.08 9.38003 41.99 9.11803 41.8C8.65603 41.46 8.42503 40.89 8.52103 40.33L10.783 27.14L1.20303 17.81C0.794026 17.41 0.647026 16.81 0.823026 16.27C1.00003 15.72 1.46903 15.33 2.03403 15.25L15.274 13.32L21.195 1.32999C21.448 0.80999 21.969 0.48999 22.54 0.48999C23.111 0.48999 23.632 0.80999 23.885 1.32999L29.806 13.32L43.045 15.25C43.61 15.33 44.08 15.72 44.256 16.27C44.433 16.81 44.286 17.41 43.876 17.81L34.297 27.14L36.558 40.33C36.654 40.89 36.423 41.46 35.961 41.8C35.499 42.13 34.888 42.18 34.381 41.91L22.54 35.69L10.698 41.91C10.479 42.03 10.239 42.08 10 42.08Z" fill="#1A1919"/>
</svg>

<svg xmlns="http://www.w3.org/2000/svg" fill="none" viewBox="0 0 45 43"><path fill="#1A1919" fill-rule="evenodd" d="M5.474 17.78l7.968 7.77c.353.34.515.84.432 1.32l-1.882 10.97 9.85-5.18c.437-.23.959-.23 1.396 0l9.849 5.18-1.88-10.97c-.084-.48.078-.98.431-1.32l7.968-7.77-11.012-1.6a1.504 1.504 0 01-1.13-.82L22.54 5.38l-4.925 9.98c-.219.44-.641.75-1.129.82l-11.012 1.6zM10 42.08c-.311 0-.62-.09-.882-.28a1.511 1.511 0 01-.597-1.47l2.262-13.19-9.58-9.33c-.409-.4-.556-1-.38-1.54.177-.55.646-.94 1.211-1.02l13.24-1.93 5.921-11.99A1.49 1.49 0 0122.54.49c.571 0 1.092.32 1.345.84l5.921 11.99 13.239 1.93c.565.08 1.035.47 1.211 1.02.177.54.03 1.14-.38 1.54l-9.579 9.33 2.261 13.19c.096.56-.135 1.13-.597 1.47-.462.33-1.073.38-1.58.11L22.54 35.69l-11.842 6.22a1.44 1.44 0 01-.698.17z" clip-rule="evenodd"/></svg>
